public/images/cypress.svg

<svg height="800" preserveAspectRatio="xMidYMid" viewBox="0 0 256 256" width="800" xmlns="http://www.w3.org/2000/svg" xmlns:xlink="http://www.w3.org/1999/xlink"><defs><path id="a" d="m128 3c69.090909 0 125 55.9090909 125 125 0 69.090909-55.909091 125-125 125-69.0909091 0-125-55.909091-125-125 0-69.0909091 55.9090909-125 125-125z"/><filter id="b" height="104.8%" width="104.8%" x="-2.4%" y="-2.4%"><feOffset dx="0" dy="0" in="SourceAlpha" result="shadowOffsetOuter1"/><feGaussianBlur in="shadowOffsetOuter1" result="shadowBlurOuter1" stdDeviation="2"/><feColorMatrix in="shadowBlurOuter1" type="matrix" values="0 0 0 0 0   0 0 0 0 0   0 0 0 0 0  0 0 0 0.3 0"/></filter><mask id="c" fill="#fff"><path d="m128 0c70.749091 0 128 57.2509091 128 128 0 70.749091-57.250909 128-128 128-70.7490909 0-128-57.250909-128-128 0-70.7490909 57.2509091-128 128-128z" fill="#fff"/></mask></defs><g mask="url(#c)"><use filter="url(#b)" xlink:href="#a"/><use fill="#fff" fill-rule="evenodd" xlink:href="#a"/></g><path d="m128 7.38596491c66.666667 0 120.614035 53.94736839 120.614035 120.61403509 0 66.666667-53.947368 120.614035-120.614035 120.614035-66.6666667 0-120.61403509-53.947368-120.61403509-120.614035 0-66.6666667 53.94736839-120.61403509 120.61403509-120.61403509z" fill="#5c5c5e" mask="url(#c)"/><path d="m192.035088 181.070175c-4.385965 13.596492-10.964913 23.684211-20.175439 31.140351-9.210526 7.456141-21.491228 11.403509-36.842105 12.719299l-3.070176-20.175439c10.08772-1.31579 17.54386-3.508772 22.368421-7.017544 1.754386-1.315789 5.263158-5.263158 5.263158-5.263158l-36.403508-116.6666665h30.263157l21.052632 87.2807015 22.368421-87.2807015h29.385965zm-105.7017547-109.2105259c7.0175439 0 13.5964913.877193 18.8596487 3.0701755 5.701755 2.1929824 10.964913 5.2631579 16.228071 9.6491228l-12.280702 16.6666666c-3.508772-2.6315789-7.017544-4.3859649-10.0877194-5.7017544-3.0701755-1.3157894-7.0175439-1.7543859-10.5263158-1.7543859-14.9122807 0-22.3684211 11.4035083-22.3684211 34.6491223 0 11.842106 1.754386 20.175439 5.7017544 25 3.9473684 5.263158 9.2105263 7.456141 16.6666667 7.456141 3.5087719 0 7.0175438-.438597 10.0877193-1.754386 3.0701759-1.31579 6.5789469-3.070176 10.9649119-5.701755l12.280702 17.54386c-10.087719 8.333333-21.491228 12.280702-34.6491227 12.280702-10.5263158 0-19.2982456-2.192983-27.1929824-6.578947-7.4561404-4.385965-13.5964913-10.964913-17.5438597-19.298246s-6.1403509-17.982456-6.1403509-29.385965c0-10.964912 2.1929825-21.052632 6.1403509-29.3859649 3.9473684-8.7719298 10.0877193-15.3508772 17.5438597-20.1754386 7.4561403-3.9473684 16.2280701-6.5789474 26.3157894-6.5789474z" fill="#fff" mask="url(#c)"/></svg>

<?xml version="1.0" encoding="UTF-8"?>
<!-- Uploaded to: SVG Repo, www.svgrepo.com, Generator: SVG Repo Mixer Tools -->
<svg width="800px" height="800px" viewBox="0 0 256 256" version="1.1" xmlns="http://www.w3.org/2000/svg" xmlns:xlink="http://www.w3.org/1999/xlink" preserveAspectRatio="xMidYMid">
    <defs>
        <path d="M128,0 C198.749091,0 256,57.2509091 256,128 C256,198.749091 198.749091,256 128,256 C57.2509091,256 0,198.749091 0,128 C0,57.2509091 57.2509091,0 128,0 Z" id="path-1">
</path>
        <path d="M128,3 C197.090909,3 253,58.9090909 253,128 C253,197.090909 197.090909,253 128,253 C58.9090909,253 3,197.090909 3,128 C3,58.9090909 58.9090909,3 128,3 Z" id="path-3">
</path>
        <filter x="-2.4%" y="-2.4%" width="104.8%" height="104.8%" filterUnits="objectBoundingBox" id="filter-4">
            <feOffset dx="0" dy="0" in="SourceAlpha" result="shadowOffsetOuter1">
</feOffset>
            <feGaussianBlur stdDeviation="2" in="shadowOffsetOuter1" result="shadowBlurOuter1">
</feGaussianBlur>
            <feColorMatrix values="0 0 0 0 0   0 0 0 0 0   0 0 0 0 0  0 0 0 0.3 0" type="matrix" in="shadowBlurOuter1">
</feColorMatrix>
        </filter>
    </defs>
		<g>
				<mask id="mask-2" fill="white">
						<use xlink:href="#path-1">
</use>
				</mask>
				<g mask="url(#mask-2)">
						<use fill="#000000" fill-opacity="1" filter="url(#filter-4)" xlink:href="#path-3">
</use>
						<use fill="#FFFFFF" fill-rule="evenodd" xlink:href="#path-3">
</use>
				</g>
				<path d="M128,7.38596491 C194.666667,7.38596491 248.614035,61.3333333 248.614035,128 C248.614035,194.666667 194.666667,248.614035 128,248.614035 C61.3333333,248.614035 7.38596491,194.666667 7.38596491,128 C7.38596491,61.3333333 61.3333333,7.38596491 128,7.38596491 Z" fill="#5C5C5E" mask="url(#mask-2)">
</path>
				<path d="M192.035088,181.070175 C187.649123,194.666667 181.070175,204.754386 171.859649,212.210526 C162.649123,219.666667 150.368421,223.614035 135.017544,224.929825 L131.947368,204.754386 C142.035088,203.438596 149.491228,201.245614 154.315789,197.736842 C156.070175,196.421053 159.578947,192.473684 159.578947,192.473684 L123.175439,75.8070175 L153.438596,75.8070175 L174.491228,163.087719 L196.859649,75.8070175 L226.245614,75.8070175 L192.035088,181.070175 Z M86.3333333,71.8596491 C93.3508772,71.8596491 99.9298246,72.7368421 105.192982,74.9298246 C110.894737,77.122807 116.157895,80.1929825 121.421053,84.5789474 L109.140351,101.245614 C105.631579,98.6140351 102.122807,96.8596491 99.0526316,95.5438596 C95.9824561,94.2280702 92.0350877,93.7894737 88.5263158,93.7894737 C73.6140351,93.7894737 66.1578947,105.192982 66.1578947,128.438596 C66.1578947,140.280702 67.9122807,148.614035 71.8596491,153.438596 C75.8070175,158.701754 81.0701754,160.894737 88.5263158,160.894737 C92.0350877,160.894737 95.5438596,160.45614 98.6140351,159.140351 C101.684211,157.824561 105.192982,156.070175 109.578947,153.438596 L121.859649,170.982456 C111.77193,179.315789 100.368421,183.263158 87.2105263,183.263158 C76.6842105,183.263158 67.9122807,181.070175 60.0175439,176.684211 C52.5614035,172.298246 46.4210526,165.719298 42.4736842,157.385965 C38.5263158,149.052632 36.3333333,139.403509 36.3333333,128 C36.3333333,117.035088 38.5263158,106.947368 42.4736842,98.6140351 C46.4210526,89.8421053 52.5614035,83.2631579 60.0175439,78.4385965 C67.4736842,74.4912281 76.245614,71.8596491 86.3333333,71.8596491 Z" fill="#FFFFFF" mask="url(#mask-2)">
</path>
		</g>
</svg>
